X: 8087
T: Constitution, The
R: hornpipe
M: 4/4
K: Fmajor
ce|eff/f/f fcaf|fgg/g/g gdbg|agfe dfba|g^fga gece|
f2f/f/f fcaf|fgg/g/g gdbg|agfe dbge|fefg f2||
cB|Acfc afcA|Bdfd bfdB|Cege bgeg|fagf edcB|
Acfc afcA|Bdfd bfdB|Cege bgeg|fefg f2||

